www/assets/icons/cruelty_free.svg

<svg xmlns="http://www.w3.org/2000/svg" width="24" height="24" viewBox="0 0 24 24" fill='currentColor'><path d="M16.84 14.77c-.26-.19-.62-.63-.79-.84C17.24 12.26 19 9.12 19 5.25c0-1.95-.74-3-2-3-1.54 0-3.96 2.06-5 5.97-1.04-3.91-3.46-5.97-5-5.97-1.26 0-2 1.05-2 3 0 3.87 1.76 7.01 2.95 8.68-.17.21-.53.65-.79.84-.5.41-1.66 1.37-1.66 2.98 0 2.21 1.79 4 4 4 1.55 0 2.5-.56 2.5-.56s.95.56 2.5.56c2.21 0 4-1.79 4-4 0-1.61-1.16-2.57-1.66-2.98m-7.49-2.32C8.34 10.95 7 8.37 7 5.25c0-.49.06-.8.12-.97.94.31 3.24 2.71 3.38 7.64-.47.12-.84.3-1.15.53M10.5 17c-.28 0-.5-.34-.5-.75s.22-.75.5-.75.5.34.5.75-.22.75-.5.75m1.5 2.75c-.55 0-1-.72-1-1s.45-.5 1-.5 1 .22 1 .5-.45 1-1 1M13.5 17c-.28 0-.5-.34-.5-.75s.22-.75.5-.75.5.34.5.75-.22.75-.5.75m0-5.08c.14-4.93 2.44-7.33 3.38-7.64.06.17.12.48.12.97 0 3.12-1.34 5.7-2.35 7.2-.31-.23-.68-.41-1.15-.53"/></svg>

<svg width="24" height="24" viewBox="0 0 24 24" xmlns="http://www.w3.org/2000/svg" fill='currentColor'><path d="M16.84 14.77C16.58 14.58 16.22 14.14 16.05 13.93C17.24 12.26 19 9.12 19 5.25C19 3.3 18.26 2.25 17 2.25C15.46 2.25 13.04 4.31 12 8.22C10.96 4.31 8.54 2.25 7 2.25C5.74 2.25 5 3.3 5 5.25C5 9.12 6.76 12.26 7.95 13.93C7.78 14.14 7.42 14.58 7.16 14.77C6.66 15.18 5.5 16.14 5.5 17.75C5.5 19.96 7.29 21.75 9.5 21.75C11.05 21.75 12 21.19 12 21.19C12 21.19 12.95 21.75 14.5 21.75C16.71 21.75 18.5 19.96 18.5 17.75C18.5 16.14 17.34 15.18 16.84 14.77ZM9.35 12.45C8.34 10.95 7 8.37 7 5.25C7 4.76 7.06 4.45 7.12 4.28C8.06 4.59 10.36 6.99 10.5 11.92C10.03 12.04 9.66 12.22 9.35 12.45ZM10.5 17C10.22 17 10 16.66 10 16.25C10 15.84 10.22 15.5 10.5 15.5C10.78 15.5 11 15.84 11 16.25C11 16.66 10.78 17 10.5 17ZM12 19.75C11.45 19.75 11 19.03 11 18.75C11 18.47 11.45 18.25 12 18.25C12.55 18.25 13 18.47 13 18.75C13 19.03 12.55 19.75 12 19.75ZM13.5 17C13.22 17 13 16.66 13 16.25C13 15.84 13.22 15.5 13.5 15.5C13.78 15.5 14 15.84 14 16.25C14 16.66 13.78 17 13.5 17ZM13.5 11.92C13.64 6.99 15.94 4.59 16.88 4.28C16.94 4.45 17 4.76 17 5.25C17 8.37 15.66 10.95 14.65 12.45C14.34 12.22 13.97 12.04 13.5 11.92Z"/></svg>
